X: 1
T: Waltzing Matilda
P: piffero primo a0444
O: de www.molwert.de
%R: march
F: http://ancients.sudburymuster.org/mus/sng/pdf/wlzmatildaC0.pdf
Z: 2020 John Chambers <jc:trillian.mit.edu>
M: 4/4
L: 1/8
K: G
z2 |\
BBBB A2A2 | GABG EFG2 | D2GB d2dd | ddd2 B2GA |\
B2BB A2A2 | GABG EFG2 | D2GB d2dd | d2cA G4 ||
||\
d2dd d2B2 | g2gg f2e2 | d2dd e2dd | d2cB A2GA |\
B2BB A2A2 | GABG EFG2 | D2GB d2cB | A2AA G2 :|
